svg/color/gmeon.svg

<svg width="40" height="40" viewBox="0 0 40 40" fill="none" xmlns="http://www.w3.org/2000/svg">
<g clip-path="url(#clip0_819_3538)">
<path d="M20 0C31.0457 0 40 8.9543 40 20C40 31.0457 31.0457 40 20 40C8.95431 40 7.90517e-06 31.0457 0 20C6.58765e-07 8.95431 8.95431 1.97595e-06 20 0Z" fill="#D9D9D9"/>
<path d="M26 6C30.4183 6 34 9.58172 34 14V26C34 30.4183 30.4183 34 26 34H14C9.58172 34 6 30.4183 6 26V14C6 9.58172 9.58172 6 14 6H26Z" fill="black"/>
<g clip-path="url(#clip1_819_3538)">
<path d="M29.0771 18.6921C29.2217 18.6921 29.3487 18.7219 29.4571 18.7881C29.5657 18.8544 29.6324 18.9332 29.6565 19.0176C29.6866 19.102 29.6988 19.2466 29.6988 19.4513V20.5369C29.6988 20.778 29.6861 20.9406 29.65 21.0431C29.6199 21.1456 29.5474 21.2245 29.4449 21.2848C29.3425 21.345 29.2159 21.3752 29.0714 21.3752C28.9568 21.3752 28.8484 21.3567 28.7459 21.3084C28.6494 21.2602 28.5593 21.1938 28.4749 21.1034V21.9839H27.6122V18.7043H28.4684V18.9631C28.5528 18.8726 28.6434 18.8062 28.7459 18.758C28.8482 18.7158 28.9567 18.6921 29.0771 18.6921ZM11.1092 18.0166C11.3986 18.0166 11.634 18.0651 11.8269 18.1737C12.0198 18.2762 12.1402 18.3968 12.2005 18.5415C12.2607 18.6801 12.2851 18.8848 12.2851 19.1559L11.302 19.2951V18.9997C11.302 18.8128 11.29 18.6919 11.2719 18.6497C11.2538 18.6015 11.2116 18.5773 11.1393 18.5773C11.0792 18.5774 11.0372 18.5955 11.0131 18.6375C10.989 18.6797 10.983 18.7822 10.983 18.9508V20.5247C10.983 20.6694 10.995 20.7722 11.0131 20.8145C11.0373 20.8626 11.0795 20.8869 11.1458 20.8869C11.218 20.8868 11.2665 20.8622 11.2906 20.8079C11.3146 20.7536 11.3264 20.6513 11.3264 20.5011V20.1146H11.1336V19.6987H12.2851V21.3809H11.6463L11.5738 21.1457C11.5076 21.248 11.4231 21.3204 11.3207 21.3687C11.2182 21.4169 11.0973 21.4411 10.9586 21.4411C10.7959 21.4411 10.6394 21.4048 10.4947 21.3385C10.35 21.2722 10.2408 21.1823 10.1684 21.0798C10.0961 20.9773 10.0482 20.8687 10.03 20.7542C10.012 20.6397 9.99994 20.4706 9.99994 20.2415V19.2707C9.99994 18.9573 10.018 18.7282 10.0602 18.5895C10.0963 18.4448 10.211 18.3179 10.3979 18.1973C10.5787 18.0768 10.8199 18.0166 11.1092 18.0166ZM22.2639 18.0166C22.517 18.0166 22.7342 18.0526 22.915 18.1248C23.0959 18.1972 23.2111 18.2881 23.2714 18.3966C23.3316 18.5052 23.3617 18.692 23.3618 18.9508V19.0835H22.4511V18.8426C22.4511 18.7281 22.4386 18.6555 22.4145 18.6253C22.3904 18.5954 22.3545 18.5774 22.3006 18.5773C22.2404 18.5773 22.198 18.5955 22.1679 18.6375C22.1378 18.6737 22.1256 18.7403 22.1256 18.8247C22.1256 18.9332 22.144 19.0179 22.1801 19.0721C22.2105 19.1263 22.3066 19.1925 22.4568 19.2707C22.8967 19.4997 23.1682 19.6867 23.2828 19.8314C23.3974 19.9761 23.4521 20.2053 23.4521 20.5247C23.4521 20.7598 23.4155 20.9346 23.3552 21.0431C23.2889 21.1517 23.1683 21.2483 22.9874 21.3206C22.8066 21.399 22.6018 21.4354 22.3608 21.4354C22.0955 21.4354 21.8722 21.3928 21.6853 21.3084C21.4985 21.218 21.3778 21.1098 21.3175 20.9772C21.2632 20.8446 21.2329 20.7239 21.2328 20.4767V20.362H22.1435V20.5915C22.1435 20.7179 22.156 20.7962 22.1801 20.8324C22.2103 20.8684 22.2522 20.8869 22.3185 20.8869C22.3848 20.8869 22.4332 20.8623 22.4633 20.8201C22.4934 20.772 22.5113 20.7058 22.5113 20.6216C22.5113 20.4287 22.4813 20.3019 22.421 20.2415C22.3607 20.1813 22.2038 20.079 21.9628 19.9404C21.7218 19.7958 21.5587 19.6991 21.4802 19.6328C21.3959 19.5666 21.3359 19.4819 21.2817 19.3675C21.2274 19.259 21.2028 19.1142 21.2027 18.9395C21.2027 18.6862 21.2394 18.499 21.3118 18.3844C21.3842 18.2699 21.5047 18.1797 21.6674 18.1134C21.8302 18.0472 22.0289 18.0166 22.2639 18.0166ZM26.171 18.6855C26.388 18.6855 26.5688 18.7103 26.7195 18.7645C26.8702 18.8127 26.985 18.8852 27.0694 18.9696C27.1538 19.054 27.2086 19.1445 27.2387 19.2349C27.2688 19.3253 27.2867 19.4637 27.2867 19.6442V20.2839C27.2867 20.5189 27.2745 20.6937 27.2444 20.8022C27.2143 20.9108 27.1542 21.0134 27.0637 21.1099C26.9673 21.2063 26.8527 21.2724 26.7081 21.3206C26.5694 21.3628 26.4002 21.3874 26.2133 21.3874C26.0023 21.3874 25.8274 21.3633 25.6827 21.3271C25.538 21.285 25.4234 21.2305 25.345 21.1522C25.2667 21.0739 25.2127 20.9773 25.1765 20.869C25.1404 20.7545 25.122 20.5914 25.122 20.3685V19.6987C25.122 19.4578 25.1521 19.271 25.2123 19.1323C25.2786 18.9997 25.3874 18.8912 25.5501 18.8068C25.7128 18.7284 25.9178 18.6856 26.171 18.6855ZM13.6783 18.6855C13.9915 18.6856 14.2325 18.7341 14.3953 18.8304C14.5581 18.9269 14.6548 19.0417 14.685 19.1803C14.7151 19.319 14.733 19.6027 14.733 20.0308V21.3328H13.8167V21.0977C13.7564 21.1941 13.6841 21.2602 13.5937 21.3084C13.5033 21.3567 13.3947 21.3808 13.2682 21.3809C13.1054 21.3809 12.9544 21.3453 12.8157 21.2669C12.6771 21.1886 12.6107 21.0194 12.6106 20.7542V20.5369C12.6106 20.344 12.6473 20.2114 12.7197 20.139C12.7921 20.0667 12.9726 19.988 13.2617 19.8916C13.5692 19.7891 13.7323 19.7227 13.7564 19.6865C13.7745 19.6503 13.7865 19.5782 13.7866 19.4701C13.7866 19.3378 13.7747 19.2471 13.7508 19.2048C13.7266 19.1625 13.6838 19.1437 13.6295 19.1437C13.5695 19.1438 13.5337 19.1623 13.5156 19.1982C13.4975 19.2344 13.4911 19.3253 13.4911 19.4701H13.5034V19.6141H12.6171V19.5002C12.6171 19.2954 12.6468 19.2106 12.7009 19.1022C12.7552 18.9937 12.8642 18.8969 13.033 18.8125C13.1958 18.7281 13.4131 18.6855 13.6783 18.6855ZM19.7859 18.6799C20.0512 18.6799 20.2686 18.7224 20.4435 18.8068C20.6181 18.8912 20.7325 19.006 20.8048 19.1445C20.871 19.2892 20.9073 19.4823 20.9073 19.7354H20.9016V20.0731H19.6777V20.6338C19.6777 20.7542 19.6897 20.8263 19.7078 20.8625C19.7319 20.8926 19.768 20.9105 19.8282 20.9105C19.9005 20.9105 19.949 20.8868 19.9731 20.8446C19.9972 20.8023 20.0089 20.7116 20.0089 20.585V20.2839H20.9016V20.4401C20.9016 20.5967 20.8891 20.7235 20.865 20.8079C20.8409 20.8983 20.7869 20.989 20.6966 21.0854C20.6061 21.1819 20.4975 21.2545 20.3588 21.3027C20.2201 21.351 20.0511 21.3752 19.8461 21.3752C19.6474 21.3752 19.4727 21.3509 19.322 21.3027C19.1713 21.2545 19.05 21.1878 18.9656 21.1034C18.8815 21.0191 18.8216 20.9289 18.7914 20.8267C18.7613 20.7242 18.7426 20.5728 18.7426 20.3799V19.6206C18.7426 19.3975 18.7793 19.2161 18.8517 19.0835C18.93 18.9511 19.0444 18.8547 19.213 18.7824C19.3758 18.7161 19.5689 18.6799 19.7859 18.6799ZM17.7962 18.6855C17.9529 18.6855 18.0856 18.7161 18.1941 18.7824C18.2966 18.8487 18.3693 18.9269 18.3935 19.0233C18.4236 19.1197 18.435 19.2709 18.435 19.488V21.3328H17.5187V19.6385C17.5187 19.4154 17.5131 19.2826 17.4951 19.2284C17.477 19.1741 17.4341 19.1502 17.3738 19.1502C17.3078 19.1503 17.2658 19.1743 17.2477 19.2284C17.2296 19.2826 17.2176 19.4215 17.2175 19.6385V21.3328H16.3012V19.6808C16.3012 19.4278 16.2948 19.277 16.2768 19.2227C16.2647 19.1684 16.2226 19.1438 16.1564 19.1437C16.1141 19.1437 16.0774 19.1559 16.0473 19.186C16.0172 19.2102 15.9993 19.2467 15.9993 19.2829C15.9933 19.3191 15.9936 19.4038 15.9936 19.5303V21.3328H15.0829V18.7344H15.9993V18.981C16.0716 18.8846 16.1625 18.8062 16.2589 18.758C16.3613 18.7098 16.4758 18.6856 16.6023 18.6855C16.8555 18.6855 17.0549 18.782 17.1996 18.981C17.278 18.8847 17.3686 18.8061 17.4649 18.758C17.5613 18.7099 17.6758 18.6856 17.7962 18.6855ZM24.6638 18.6619H24.9649V18.9875H24.6638V20.5915C24.6639 20.7598 24.6759 20.856 24.6939 20.8804C24.712 20.8985 24.8025 20.9105 24.9592 20.9105V21.3328H24.5792C24.3623 21.3328 24.2659 21.3265 24.1756 21.3084C24.0851 21.2964 24.0002 21.2602 23.9339 21.2059C23.8618 21.1517 23.8193 21.0857 23.8012 21.0195C23.7831 20.9472 23.7776 20.784 23.7776 20.5247V18.9932H23.5969V18.6676H23.7776V18.312H24.6638V18.6619ZM13.7866 20.0967C13.6358 20.1932 13.5511 20.2716 13.527 20.3319C13.5029 20.3982 13.4911 20.4891 13.4911 20.6037C13.4912 20.736 13.5032 20.8263 13.5213 20.8625C13.5393 20.9046 13.5815 20.9227 13.6417 20.9227C13.702 20.9227 13.7384 20.9048 13.7564 20.8747C13.7655 20.8596 13.7714 20.8324 13.7752 20.7925L13.7866 20.6338V20.0967ZM28.6132 19.1437C28.5529 19.1437 28.5109 19.1625 28.4928 19.2048C28.4748 19.2411 28.4684 19.3375 28.4684 19.488V20.5671C28.4684 20.7237 28.4804 20.8202 28.4985 20.8625C28.5165 20.9046 28.5588 20.9226 28.6189 20.9227C28.6732 20.9227 28.7159 20.9043 28.728 20.8682C28.7369 20.85 28.7429 20.8186 28.7467 20.7746L28.7459 20.6029V19.4814C28.7459 19.3252 28.74 19.2289 28.728 19.1925C28.7159 19.1624 28.6735 19.1437 28.6132 19.1437ZM26.2011 19.1437C26.1469 19.1438 26.1044 19.1621 26.0864 19.1982C26.0683 19.2344 26.0563 19.3189 26.0563 19.4513V20.6216C26.0563 20.7478 26.0683 20.8262 26.0864 20.8625C26.1105 20.8986 26.1469 20.917 26.2011 20.917C26.2612 20.917 26.2977 20.9049 26.3159 20.869C26.3249 20.8539 26.3326 20.8279 26.3378 20.7917L26.3403 20.6517V19.4513C26.3403 19.3189 26.3339 19.2344 26.3159 19.1982C26.2977 19.1621 26.2553 19.1437 26.2011 19.1437ZM19.8339 19.1445C19.7617 19.1446 19.7259 19.1624 19.7078 19.1925C19.6897 19.2287 19.6834 19.319 19.6834 19.4635V19.6751H19.9666V19.4635C19.9666 19.3314 19.9609 19.2412 19.943 19.2048C19.9249 19.1625 19.8882 19.1445 19.8339 19.1445Z" fill="white"/>
</g>
</g>
<defs>
<clipPath id="clip0_819_3538">
<rect width="40" height="40" fill="white"/>
</clipPath>
<clipPath id="clip1_819_3538">
<rect width="20" height="20" fill="white" transform="translate(10 10)"/>
</clipPath>
</defs>
</svg>

<svg xmlns="http://www.w3.org/2000/svg" width="40" height="40" fill="none" viewBox="0 0 40 40"><g clip-path="url(#gmeon_svg-a)"><path fill="#D9D9D9" d="M20 0c11.046 0 20 8.954 20 20s-8.954 20-20 20S0 31.046 0 20 8.954 0 20 0"/><path fill="#000" d="M26 6a8 8 0 0 1 8 8v12a8 8 0 0 1-8 8H14a8 8 0 0 1-8-8V14a8 8 0 0 1 8-8z"/><g clip-path="url(#gmeon_svg-b)"><path fill="#fff" d="M29.077 18.692q.218-.001.38.096.163.1.2.23.044.127.042.433v1.086c0 .241-.013.404-.049.506a.42.42 0 0 1-.205.242.73.73 0 0 1-.374.09.75.75 0 0 1-.325-.067 1 1 0 0 1-.271-.205v.88h-.863v-3.279h.856v.26a.9.9 0 0 1 .278-.206.9.9 0 0 1 .331-.066m-17.968-.675c.29 0 .525.048.718.157.193.102.313.223.373.367.06.14.085.344.085.615l-.983.14V19c0-.187-.012-.308-.03-.35q-.025-.073-.133-.073-.09-.002-.126.06c-.024.043-.03.145-.03.314v1.574a1 1 0 0 0 .03.29q.034.072.133.072.108.001.145-.08a.9.9 0 0 0 .035-.306v-.386h-.192v-.416h1.151v1.682h-.639l-.072-.235a.6.6 0 0 1-.253.223.84.84 0 0 1-.362.072 1.1 1.1 0 0 1-.464-.102.78.78 0 0 1-.465-.584 3.5 3.5 0 0 1-.03-.514v-.97q-.002-.473.06-.681c.036-.145.151-.272.338-.393.18-.12.422-.18.711-.18m11.155 0q.38 0 .651.108c.18.072.296.163.356.272q.09.164.09.554v.133h-.91v-.241q0-.172-.037-.218-.035-.046-.113-.048-.089-.002-.133.06c-.03.037-.042.103-.042.188q0 .164.054.247c.03.054.127.12.277.199.44.229.711.416.826.56q.17.216.17.694c0 .235-.037.41-.098.518-.066.109-.187.205-.368.278a1.55 1.55 0 0 1-.626.114q-.396 0-.676-.127-.278-.134-.367-.33c-.055-.133-.085-.254-.085-.501v-.115h.91v.23q0 .188.037.24c.03.036.072.055.139.055q.099-.002.144-.067a.37.37 0 0 0 .048-.198q0-.29-.09-.38c-.06-.06-.217-.163-.458-.302-.241-.144-.404-.24-.483-.307a.7.7 0 0 1-.198-.265 1 1 0 0 1-.08-.428q0-.382.11-.556a.73.73 0 0 1 .355-.27q.245-.099.597-.097m3.907.669q.324-.002.549.079c.15.048.265.12.35.205a.7.7 0 0 1 .169.265q.047.137.048.41v.639q.002.354-.043.518a.74.74 0 0 1-.18.308.9.9 0 0 1-.356.21 1.7 1.7 0 0 1-.495.067 2.2 2.2 0 0 1-.53-.06.8.8 0 0 1-.338-.175.7.7 0 0 1-.168-.283 1.7 1.7 0 0 1-.055-.5v-.67q0-.36.09-.567a.74.74 0 0 1 .338-.325q.243-.12.621-.121m-12.493 0q.471 0 .717.144.245.144.29.35.046.209.048.85v1.303h-.916v-.235a.6.6 0 0 1-.223.21.7.7 0 0 1-.326.073.9.9 0 0 1-.452-.114q-.207-.116-.205-.513v-.217q0-.29.109-.398c.072-.072.253-.151.542-.247q.46-.153.494-.206a.6.6 0 0 0 .03-.216q0-.2-.035-.265c-.024-.042-.067-.061-.121-.061q-.088 0-.114.054t-.025.272h.012v.144h-.886V19.5c0-.205.03-.29.084-.398q.08-.162.332-.29.246-.127.645-.127m6.108-.006q.397 0 .657.127c.175.084.29.199.362.338.066.144.102.337.102.59h-.005v.338h-1.224v.56c0 .121.012.193.03.23.024.03.06.047.12.047q.11-.001.145-.065c.024-.043.036-.133.036-.26v-.301h.893v.156c0 .157-.013.284-.037.368a.66.66 0 0 1-.168.277c-.09.097-.2.17-.338.218a1.6 1.6 0 0 1-.513.072q-.298 0-.524-.072a.9.9 0 0 1-.356-.2.66.66 0 0 1-.175-.276 1.7 1.7 0 0 1-.048-.447v-.76q0-.336.109-.537a.73.73 0 0 1 .361-.3q.246-.102.573-.103m-1.99.006q.236-.002.398.096c.103.067.175.145.2.241.03.097.041.248.041.465v1.845h-.916v-1.694c0-.224-.006-.356-.024-.41q-.028-.08-.121-.079-.099-.001-.126.078-.028.084-.03.41v1.695H16.3V19.68q.002-.378-.024-.458-.02-.081-.12-.08a.15.15 0 0 0-.11.043.13.13 0 0 0-.048.097q-.007.055-.005.247v1.803h-.911v-2.599h.916v.247a.76.76 0 0 1 .26-.223.8.8 0 0 1 .343-.072q.38-.002.598.295a.8.8 0 0 1 .265-.223.75.75 0 0 1 .331-.072m6.868-.024h.3v.326h-.3v1.604q.002.252.03.288.028.029.265.03v.423h-.38a2 2 0 0 1-.403-.025.5.5 0 0 1-.242-.102.35.35 0 0 1-.133-.186q-.025-.108-.023-.495v-1.532h-.181v-.325h.18v-.356h.887zm-10.877 1.435q-.225.145-.26.235a.8.8 0 0 0-.036.272.7.7 0 0 0 .03.259q.029.062.12.06.09-.002.115-.048a.2.2 0 0 0 .02-.082l.01-.16zm14.826-.953q-.092 0-.12.06-.026.056-.025.284v1.08a1 1 0 0 0 .03.294c.018.043.06.06.12.06.055 0 .098-.018.11-.054a.3.3 0 0 0 .019-.093l-.001-.172V19.48q0-.234-.018-.289c-.012-.03-.055-.048-.115-.048m-2.412 0c-.054 0-.097.018-.115.054a.7.7 0 0 0-.03.253v1.17c0 .127.012.205.03.242q.034.054.115.054c.06 0 .097-.012.115-.048a.2.2 0 0 0 .022-.077l.002-.14v-1.2q.002-.2-.024-.254c-.018-.036-.06-.054-.115-.054m-6.367 0c-.072 0-.108.018-.126.049q-.026.054-.025.27v.212h.284v-.212c0-.132-.006-.222-.024-.258q-.027-.062-.11-.06"/></g></g><defs><clipPath id="gmeon_svg-a"><path fill="#fff" d="M0 0h40v40H0z"/></clipPath><clipPath id="gmeon_svg-b"><path fill="#fff" d="M10 10h20v20H10z"/></clipPath></defs></svg>
